static/img/kroki/c75c54473d5d82e488358a9b70f791b9.svg

<?xml version="1.0" encoding="us-ascii" standalone="no"?><svg xmlns="http://www.w3.org/2000/svg" xmlns:xlink="http://www.w3.org/1999/xlink" contentStyleType="text/css" height="352px" preserveAspectRatio="none" style="width:401px;height:352px;" version="1.1" viewBox="0 0 401 352" width="401px" zoomAndPan="magnify"><defs/><g><!--class kubernetes_cron_job--><g id="elem_kubernetes_cron_job"><rect codeLine="22" fill="#3D176E" height="39.7891" id="kubernetes_cron_job" rx="2.5" ry="2.5" style="stroke:#000D19;stroke-width:0.5;" width="215" x="7" y="106.79"/><ellipse cx="22" cy="126.6845" fill="#ADD1B2" rx="11" ry="11" style="stroke:#181818;stroke-width:1.0;"/><path d="M24.9688,132.3252 Q24.3906,132.622 23.75,132.7627 Q23.1094,132.9189 22.4063,132.9189 Q19.9063,132.9189 18.5781,131.2783 Q17.2656,129.622 17.2656,126.497 Q17.2656,123.372 18.5781,121.7158 Q19.9063,120.0595 22.4063,120.0595 Q23.1094,120.0595 23.75,120.2158 Q24.4063,120.372 24.9688,120.6689 L24.9688,123.3877 Q24.3438,122.8095 23.75,122.5439 Q23.1563,122.2627 22.5313,122.2627 Q21.1875,122.2627 20.5,123.3408 Q19.8125,124.4033 19.8125,126.497 Q19.8125,128.5908 20.5,129.6689 Q21.1875,130.7314 22.5313,130.7314 Q23.1563,130.7314 23.75,130.4658 Q24.3438,130.1845 24.9688,129.6064 L24.9688,132.3252 Z " fill="#000000"/><text fill="#D9B8FF" font-family="Helvetica" font-size="17" lengthAdjust="spacing" textLength="173" x="41" y="132.5698">kubernetes_cron_job</text></g><!--class kubernetes_job--><g id="elem_kubernetes_job"><rect codeLine="24" fill="#3D176E" height="39.7891" id="kubernetes_job" rx="2.5" ry="2.5" style="stroke:#000D19;stroke-width:0.5;" width="170" x="122.5" y="206.58"/><ellipse cx="137.5" cy="226.4745" fill="#ADD1B2" rx="11" ry="11" style="stroke:#181818;stroke-width:1.0;"/><path d="M140.4688,232.1152 Q139.8906,232.412 139.25,232.5527 Q138.6094,232.7089 137.9063,232.7089 Q135.4063,232.7089 134.0781,231.0683 Q132.7656,229.412 132.7656,226.287 Q132.7656,223.162 134.0781,221.5058 Q135.4063,219.8495 137.9063,219.8495 Q138.6094,219.8495 139.25,220.0058 Q139.9063,220.162 140.4688,220.4589 L140.4688,223.1777 Q139.8438,222.5995 139.25,222.3339 Q138.6563,222.0527 138.0313,222.0527 Q136.6875,222.0527 136,223.1308 Q135.3125,224.1933 135.3125,226.287 Q135.3125,228.3808 136,229.4589 Q136.6875,230.5214 138.0313,230.5214 Q138.6563,230.5214 139.25,230.2558 Q139.8438,229.9745 140.4688,229.3964 L140.4688,232.1152 Z " fill="#000000"/><text fill="#D9B8FF" font-family="Helvetica" font-size="17" lengthAdjust="spacing" textLength="128" x="156.5" y="232.3598">kubernetes_job</text></g><!--class kubernetes_namespace--><g id="elem_kubernetes_namespace"><rect codeLine="26" fill="#3D176E" height="39.7891" id="kubernetes_namespace" rx="2.5" ry="2.5" style="stroke:#000D19;stroke-width:0.5;" width="239" x="155" y="7"/><ellipse cx="170" cy="26.8945" fill="#ADD1B2" rx="11" ry="11" style="stroke:#181818;stroke-width:1.0;"/><path d="M172.9688,32.5352 Q172.3906,32.832 171.75,32.9727 Q171.1094,33.1289 170.4063,33.1289 Q167.9063,33.1289 166.5781,31.4883 Q165.2656,29.832 165.2656,26.707 Q165.2656,23.582 166.5781,21.9258 Q167.9063,20.2695 170.4063,20.2695 Q171.1094,20.2695 171.75,20.4258 Q172.4063,20.582 172.9688,20.8789 L172.9688,23.5977 Q172.3438,23.0195 171.75,22.7539 Q171.1563,22.4727 170.5313,22.4727 Q169.1875,22.4727 168.5,23.5508 Q167.8125,24.6133 167.8125,26.707 Q167.8125,28.8008 168.5,29.8789 Q169.1875,30.9414 170.5313,30.9414 Q171.1563,30.9414 171.75,30.6758 Q172.3438,30.3945 172.9688,29.8164 L172.9688,32.5352 Z " fill="#000000"/><text fill="#D9B8FF" font-family="Helvetica" font-size="17" lengthAdjust="spacing" textLength="197" x="189" y="32.7798">kubernetes_namespace</text></g><!--class kubernetes_pod--><g id="elem_kubernetes_pod"><rect codeLine="28" fill="#3D176E" height="39.7891" id="kubernetes_pod" rx="2.5" ry="2.5" style="stroke:#000D19;stroke-width:0.5;" width="175" x="189" y="306.37"/><ellipse cx="204" cy="326.2645" fill="#ADD1B2" rx="11" ry="11" style="stroke:#181818;stroke-width:1.0;"/><path d="M206.9688,331.9052 Q206.3906,332.202 205.75,332.3427 Q205.1094,332.4989 204.4063,332.4989 Q201.9063,332.4989 200.5781,330.8583 Q199.2656,329.202 199.2656,326.077 Q199.2656,322.952 200.5781,321.2958 Q201.9063,319.6395 204.4063,319.6395 Q205.1094,319.6395 205.75,319.7958 Q206.4063,319.952 206.9688,320.2489 L206.9688,322.9677 Q206.3438,322.3895 205.75,322.1239 Q205.1563,321.8427 204.5313,321.8427 Q203.1875,321.8427 202.5,322.9208 Q201.8125,323.9833 201.8125,326.077 Q201.8125,328.1708 202.5,329.2489 Q203.1875,330.3114 204.5313,330.3114 Q205.1563,330.3114 205.75,330.0458 Q206.3438,329.7645 206.9688,329.1864 L206.9688,331.9052 Z " fill="#000000"/><text fill="#D9B8FF" font-family="Helvetica" font-size="17" lengthAdjust="spacing" textLength="133" x="223" y="332.1498">kubernetes_pod</text></g><!--link kubernetes_cron_job to kubernetes_job--><g id="link_kubernetes_cron_job_kubernetes_job"><path codeLine="30" d="M132.87,147.01 C147.9,162.81 169.21,185.22 185.22,202.05 " fill="none" id="kubernetes_cron_job-to-kubernetes_job" style="stroke:#1A83AF;stroke-width:2.0;"/><polygon fill="#1A83AF" points="188.16,205.2,184.867,195.918,184.7185,201.5729,179.0636,201.4244,188.16,205.2" style="stroke:#1A83AF;stroke-width:2.0;"/></g><!--link kubernetes_job to kubernetes_pod--><g id="link_kubernetes_job_kubernetes_pod"><path codeLine="31" d="M221.13,246.8 C232.19,262.47 247.83,284.63 259.66,301.41 " fill="none" id="kubernetes_job-to-kubernetes_pod" style="stroke:#1A83AF;stroke-width:2.0;"/><polygon fill="#1A83AF" points="262.9,304.99,260.9751,295.3311,260.0155,300.906,254.4406,299.9463,262.9,304.99" style="stroke:#1A83AF;stroke-width:2.0;"/></g><!--link kubernetes_namespace to kubernetes_cron_job--><g id="link_kubernetes_namespace_kubernetes_cron_job"><path codeLine="32" d="M242.89,47.22 C216.48,63.36 178.81,86.38 151.1,103.32 " fill="none" id="kubernetes_namespace-to-kubernetes_cron_job" style="stroke:#1A83AF;stroke-width:2.0;"/><polygon fill="#1A83AF" points="147.05,106.41,156.8157,105.1327,151.3171,103.8039,152.6459,98.3053,147.05,106.41" style="stroke:#1A83AF;stroke-width:2.0;"/></g><!--link kubernetes_namespace to kubernetes_job--><g id="link_kubernetes_namespace_kubernetes_job"><path codeLine="33" d="M269.49,46.99 C263.16,70.6 251.61,111.9 239.5,146.58 C233.08,164.97 224.78,185.34 218.25,200.78 " fill="none" id="kubernetes_namespace-to-kubernetes_job" style="stroke:#1A83AF;stroke-width:2.0;"/><polygon fill="#1A83AF" points="215.93,205.23,223.1342,198.5144,217.8875,200.6291,215.7728,195.3824,215.93,205.23" style="stroke:#1A83AF;stroke-width:2.0;"/></g><!--link kubernetes_namespace to kubernetes_pod--><g id="link_kubernetes_namespace_kubernetes_pod"><path codeLine="34" d="M282.24,47.28 C296.5,85.52 324.16,173.31 309.5,246.37 C305.67,265.43 297.13,285.63 289.7,300.82 " fill="none" id="kubernetes_namespace-to-kubernetes_pod" style="stroke:#1A83AF;stroke-width:2.0;"/><polygon fill="#1A83AF" points="287.02,305.17,294.6146,298.8993,289.2503,300.695,287.4546,295.3307,287.02,305.17" style="stroke:#1A83AF;stroke-width:2.0;"/></g><!--SRC=[bP91IyD048Nl-HKBFHSIWwQz235Gz5B4UXCfc-niioRP3RCRInN_kqbhPRj9MdgTzysyDyFaWW61gZOxKa6L0cfF5qBM56b5OaIrJLIfa4mufpoCN76XfBa8B6a5v17AJp0YeoxncekiaA0rkR6a1veL6rIDP8Vn1gdKhGJIM5HIKgrZOr2aZG4h39kdCyvTqXqw2LaGtK4FKyW0_n3VzramTv6BLcVt_YTMuWj8O1zjgGpqOlOizjJPb1rXXUmjUjH7CpvJneJSa5khzdB8X1BmfBxAALFRZkQqrBQDDe2WpAw6fBSLp6UCHuFmqnYSTPSZHTC-gWG3UfsXakiFbP9lxwUlZWgoNRjzfmo6vLgnlJ1aD7sR1F4iZ1Vlqtl7otEinz1sl3SOPgpXQ7vTrzKDRQvV]--></g></svg>

<svg xmlns="http://www.w3.org/2000/svg" width="401" height="352" preserveAspectRatio="none" style="width:401px;height:352px"><rect width="215" height="39.789" x="7" y="106.79" fill="#3D176E" rx="2.5" ry="2.5" style="stroke:#000d19;stroke-width:.5"/><circle cx="22" cy="126.684" r="11" fill="#ADD1B2" style="stroke:#181818;stroke-width:1"/><path d="M24.969 132.325q-.578.297-1.219.438-.64.156-1.344.156-2.5 0-3.828-1.64-1.312-1.657-1.312-4.782t1.312-4.781q1.328-1.656 3.828-1.656.703 0 1.344.156.656.156 1.219.453v2.719q-.625-.579-1.219-.844-.594-.281-1.219-.281-1.343 0-2.031 1.078-.688 1.062-.688 3.156 0 2.094.688 3.172.688 1.062 2.031 1.062.625 0 1.219-.265.594-.281 1.219-.86v2.72Z"/><text x="41" y="132.57" fill="#D9B8FF" font-family="Helvetica" font-size="17" textLength="173">kubernetes_cron_job</text><rect width="170" height="39.789" x="122.5" y="206.58" fill="#3D176E" rx="2.5" ry="2.5" style="stroke:#000d19;stroke-width:.5"/><circle cx="137.5" cy="226.475" r="11" fill="#ADD1B2" style="stroke:#181818;stroke-width:1"/><path d="M140.469 232.115q-.578.297-1.219.438-.64.156-1.344.156-2.5 0-3.828-1.64-1.312-1.657-1.312-4.782t1.312-4.781q1.328-1.656 3.828-1.656.703 0 1.344.156.656.156 1.219.453v2.719q-.625-.578-1.219-.844-.594-.281-1.219-.281-1.344 0-2.031 1.078-.688 1.062-.688 3.156 0 2.094.688 3.172.688 1.062 2.031 1.062.625 0 1.219-.265.594-.281 1.219-.86v2.72Z"/><text x="156.5" y="232.36" fill="#D9B8FF" font-family="Helvetica" font-size="17" textLength="128">kubernetes_job</text><rect width="239" height="39.789" x="155" y="7" fill="#3D176E" rx="2.5" ry="2.5" style="stroke:#000d19;stroke-width:.5"/><circle cx="170" cy="26.895" r="11" fill="#ADD1B2" style="stroke:#181818;stroke-width:1"/><path d="M172.969 32.535q-.578.297-1.219.438-.64.156-1.344.156-2.5 0-3.828-1.64-1.312-1.657-1.312-4.782t1.312-4.781q1.328-1.656 3.828-1.656.703 0 1.344.156.656.156 1.219.453v2.719q-.625-.578-1.219-.844-.594-.281-1.219-.281-1.344 0-2.031 1.078-.688 1.062-.688 3.156 0 2.094.688 3.172.688 1.062 2.031 1.062.625 0 1.219-.265.594-.281 1.219-.86v2.72Z"/><text x="189" y="32.78" fill="#D9B8FF" font-family="Helvetica" font-size="17" textLength="197">kubernetes_namespace</text><rect width="175" height="39.789" x="189" y="306.37" fill="#3D176E" rx="2.5" ry="2.5" style="stroke:#000d19;stroke-width:.5"/><circle cx="204" cy="326.264" r="11" fill="#ADD1B2" style="stroke:#181818;stroke-width:1"/><path d="M206.969 331.905q-.578.297-1.219.438-.64.156-1.344.156-2.5 0-3.828-1.64-1.312-1.657-1.312-4.782t1.312-4.781q1.328-1.656 3.828-1.656.703 0 1.344.156.656.156 1.219.453v2.719q-.625-.579-1.219-.844-.594-.281-1.219-.281-1.344 0-2.031 1.078-.688 1.062-.688 3.156 0 2.094.688 3.172.688 1.062 2.031 1.062.625 0 1.219-.265.594-.281 1.219-.86v2.72Z"/><text x="223" y="332.15" fill="#D9B8FF" font-family="Helvetica" font-size="17" textLength="133">kubernetes_pod</text><path fill="none" d="M132.87 147.01c15.03 15.8 36.34 38.21 52.35 55.04" style="stroke:#1a83af;stroke-width:2"/><path fill="#1A83AF" d="m188.16 205.2-3.293-9.282-.148 5.655-5.655-.149 9.096 3.776z" style="stroke:#1a83af;stroke-width:2"/><path fill="none" d="M221.13 246.8c11.06 15.67 26.7 37.83 38.53 54.61" style="stroke:#1a83af;stroke-width:2"/><path fill="#1A83AF" d="m262.9 304.99-1.925-9.659-.96 5.575-5.574-.96 8.459 5.044z" style="stroke:#1a83af;stroke-width:2"/><path fill="none" d="M242.89 47.22c-26.41 16.14-64.08 39.16-91.79 56.1" style="stroke:#1a83af;stroke-width:2"/><path fill="#1A83AF" d="m147.05 106.41 9.766-1.277-5.499-1.33 1.329-5.498-5.596 8.105z" style="stroke:#1a83af;stroke-width:2"/><path fill="none" d="M269.49 46.99c-6.33 23.61-17.88 64.91-29.99 99.59-6.42 18.39-14.72 38.76-21.25 54.2" style="stroke:#1a83af;stroke-width:2"/><path fill="#1A83AF" d="m215.93 205.23 7.204-6.716-5.246 2.115-2.115-5.247.157 9.848z" style="stroke:#1a83af;stroke-width:2"/><path fill="none" d="M282.24 47.28c14.26 38.24 41.92 126.03 27.26 199.09-3.83 19.06-12.37 39.26-19.8 54.45" style="stroke:#1a83af;stroke-width:2"/><path fill="#1A83AF" d="m287.02 305.17 7.595-6.27-5.365 1.795-1.795-5.364-.435 9.839z" style="stroke:#1a83af;stroke-width:2"/></svg>
